X:6818
T:The Gipsy Hornpipe
O:england
B:Joyce, P. W.; "Old Irish Folk Music and Songs"
R:hornpipe
M:2/4
K:G
L:1/8
D|G2 GA|GB dB|cBcd|efge|dBGG|G>ABG|AF D2|D3/4 D|
G2 GA GB dB|cBcd|efge dggd|ecAF|G2 GG|G3::d|
d2 Bd|BG Bd|edcB|cdeg|d2 Bd|edcB|AF D2|
D2 Bc|d2 Bd|BG Bd|edcB|cdef|gfgd|ec AF|G2 GG|G3:|
